X:1
T: Blackberry Blossom
T: 2nd setting
R:Reel
Q:232
K:G
M:4/4
L:1/8
dB Ac BGG2|B2BA Bd ge|dB Ac BGG2|eaa2 ba ge|
dB Ac BG GA|B2BA Bd ge|dB Ac BGG2|ea a^g a2=ge|
|:g2gf ga ba|g2g2 ag ef|g2gf ga bg|ea ab a2ge|
g2gf ga ba|gg3 a2ga|bg af gf ed|eaa2 ba ge:|
dB Ac BGG2|B2BA Bd ge|dB Ac BGG2|eaa2 ba ge|
dB Ac BG GA|B2BA Bd ge|dB Ac BGG2|dB Ac BGG2||
